X: 63
T: The Banshee
T:MacMahon's #3
C:James MacMahon
R:reel
M:C|
K:G
"G"~G3D "Em"EDB,D|"G"GFGB d2Bd|"C"eged "G"BAGA|"Em"BAGE "(D)"EDB,D|
"G"~G3D "Em"EDB,D|"G"GFGB d2Bd|"C"eged "G"BAGA|"Em"BAGE "D" EDDE:|
|:"Am"eaag "C"efge|"G(Em)"dBBA B3d|"Em"eB~B2 "G"gBfB|"Em"eBBA B3d|
"Am"eaag "C"efge|"Em"dBBA B3d|"C"e2ed "G"BAGA|"Em"BAGE "D"EDDE:|


